images/integrity-icon.svg

<svg xmlns="http://www.w3.org/2000/svg" width="24" height="24" viewBox="0 0 24 24"><path d="M12 1L3 5v6c0 5.55 3.84 10.74 9 12 5.16-1.26 9-6.45 9-12V5l-9-4zm0 10.99h7C18.47 16.11 15.72 19.78 12 20.93V12H5V6.3l7-3.11v8.8z" fill="#006838"/></svg>

<?xml version="1.0" encoding="UTF-8"?><svg width="24" height="24" viewBox="0 0 24 24" fill="none" xmlns="http://www.w3.org/2000/svg"><path d="M12 1L3 5V11C3 16.55 6.84 21.74 12 23C17.16 21.74 21 16.55 21 11V5L12 1ZM12 11.99H19C18.47 16.11 15.72 19.78 12 20.93V12H5V6.3L12 3.19V11.99Z" fill="#006838"/></svg>
